pico_icons/symbolic/categories/emoji-travel-symbolic.svg

<?xml version="1.0" encoding="UTF-8"?>
<svg height="16px" viewBox="0 0 16 16" width="16px" xmlns="http://www.w3.org/2000/svg">
    <path d="m 3.035156 1 c -0.460937 0 -0.859375 0.3125 -0.972656 0.757812 l -1 4 c -0.019531 0.078126 -0.027344 0.160157 -0.027344 0.242188 v 0.039062 c -0.566406 0.09375 -0.9999998 0.5625 -0.9999998 1.15625 v 4.613282 c 0 0.589844 0.4335938 1.058594 0.9999998 1.152344 v 1.539062 c 0 0.277344 0.222656 0.5 0.5 0.5 h 2 c 0.277344 0 0.5 -0.222656 0.5 -0.5 v -1.5 h 8 v 1.5 c 0 0.277344 0.222656 0.5 0.5 0.5 h 2 c 0.277344 0 0.5 -0.222656 0.5 -0.5 v -1.539062 c 0.5625 -0.09375 1 -0.5625 1 -1.15625 v -4.609376 c 0 -0.59375 -0.4375 -1.0625 -1 -1.15625 v -0.039062 c 0 -0.082031 -0.011718 -0.164062 -0.03125 -0.242188 l -1 -4 c -0.109375 -0.445312 -0.511718 -0.757812 -0.96875 -0.757812 z m 0.78125 2 h 8.4375 l 0.75 3 h -9.9375 z m -0.28125 5 c 0.828125 0 1.5 0.671875 1.5 1.5 s -0.671875 1.5 -1.5 1.5 s -1.5 -0.671875 -1.5 -1.5 s 0.671875 -1.5 1.5 -1.5 z m 9 0 c 0.828125 0 1.5 0.671875 1.5 1.5 s -0.671875 1.5 -1.5 1.5 s -1.5 -0.671875 -1.5 -1.5 s 0.671875 -1.5 1.5 -1.5 z m 0 0" fill="#2e3436"/>
</svg>

<svg xmlns="http://www.w3.org/2000/svg" width="16" height="16" version="1.1">
 <path style="fill:#fff1e8" d="M 3,1 A 1,1 0 0 0 2.03,1.758 l -1,4 A 1,1 0 0 0 1,6 V 6.04 C 0.436,6.134 0,6.601 0,7.193 v 4.614 c 0,0.592 0.436,1.059 1,1.154 V 14.5 C 1,14.777 1.223,15 1.5,15 h 2 C 3.777,15 4,14.777 4,14.5 V 13 h 8 v 1.5 c 0,0.277 0.223,0.5 0.5,0.5 h 2 c 0.277,0 0.5,-0.223 0.5,-0.5 v -1.54 c 0.564,-0.094 1,-0.561 1,-1.153 V 7.193 C 16,6.601 15.564,6.134 15,6.039 V 6 A 1,1 0 0 0 14.97,5.758 l -1,-4 A 1,1 0 0 0 13,1 Z m 0.781,2 h 8.438 l 0.75,3 H 3.031 Z M 3.5,8 A 1.5,1.5 0 0 1 5,9.5 1.5,1.5 0 0 1 3.5,11 1.5,1.5 0 0 1 2,9.5 1.5,1.5 0 0 1 3.5,8 Z m 9,0 A 1.5,1.5 0 0 1 14,9.5 1.5,1.5 0 0 1 12.5,11 1.5,1.5 0 0 1 11,9.5 1.5,1.5 0 0 1 12.5,8 Z"/>
</svg>
